X: 2
T: Feng shou ge
L: 1/8
M: 6/8
K: G
D2G A> G B [I:setbarnb 1]| 
D2GA3 | 
B2B A> G B | 
E> G E D E/ D/ B,/ A,/ | 
DD2-D3 | 
G B> A G A/ G/ E/ D/ | 
G G G A d B/ A/ | 
G A/ G/ E/ D/G3 | 
D2G A> G B | 
D2GA3 | 
B2B A> G B | 
E> G E D E/ D/ B,/ A,/ | 
DD2-D3 | 
G B> A G A/ G/ E/ D/ | 
G G G A d B/ A/ | 
G A/ G/ E/ D/G3 |]

@@@ Tune index: 8670
